X:12602
T:Lemmy Brazil's No 2
R:Hornpipe
C:Trad.
O:England
Z:Paul Hardy's Annex Tunebook 2015 (see www.paulhardy.net). Creative Commons cc by-nc-sa licenced.
M:4/4
L:1/8
Q:1/4=130
K:D
AG|"D"F2A2 "A"(3BcB A2|"D"defd "A"(3BcB AG|"D"FAdA "G"Bcdf|"Em"e2e2e2"A"AG|
"D"F2A2 "A"(3BcB A2|"D"defd "A"(3BcB AG|"D"FAdA "G"Bcdf|"A7"e2e2"D"d2:|
|:fg|"D"afdf afdf|defd "A"(3BcB AG|"D"FAdA "G"Bcdf|"Em"e2e2e2"A"fg|
"D"afdf afdf|defd "A"(3BcB AG|"D"FAdA "G"Bcdf|"A7"e2e2"D"d2:|

